( pcb2gcode 1.1.4 )

G94     ( Inches per minute feed rate. )
G20     ( Units == INCHES.             )
G90     ( Absolute coordinates.        )
S12000  ( RPM spindle speed.           )
M3      ( Spindle on clockwise.        )

G64 P0.00500 ( set maximum deviation from commanded toolpath )

G04 P0 ( dwell for no time -- G64 should not smooth over this point )
G00 Z0.07874 ( retract )

G00 X0.78900 Y-0.78091 ( rapid move to begin. )
G01 Z-0.00276 F7.87402 ( plunge. )
G04 P0 ( dwell for no time -- G64 should not smooth over this point )
X0.78900 Y-0.78091
X0.79200 Y-0.78091
X0.79200 Y-0.78191
X0.79300 Y-0.78191
X0.79300 Y-0.78391
X0.79400 Y-0.78391
X0.79400 Y-0.78591
X0.79500 Y-0.78591
X0.79500 Y-0.78891
X0.79400 Y-0.78891
X0.79400 Y-0.79091
X0.79300 Y-0.79091
X0.79300 Y-0.79291
X0.79200 Y-0.79291
X0.79200 Y-0.79391
X0.78900 Y-0.79391
X0.78900 Y-0.79491
X0.78600 Y-0.79491
X0.78600 Y-0.79391
X0.78300 Y-0.79391
X0.78300 Y-0.79291
X0.78200 Y-0.79291
X0.78200 Y-0.79091
X0.78100 Y-0.79091
X0.78100 Y-0.78891
X0.78000 Y-0.78891
X0.78000 Y-0.78591
X0.78100 Y-0.78591
X0.78100 Y-0.78391
X0.78200 Y-0.78391
X0.78200 Y-0.78191
X0.78300 Y-0.78191
X0.78300 Y-0.78091
X0.78600 Y-0.78091
X0.78600 Y-0.77991
X0.78900 Y-0.77991
X0.78900 Y-0.78091
G04 P0 ( dwell for no time -- G64 should not smooth over this point )
G00 Z0.07874 ( retract )

G00 X1.08900 Y-0.78091 ( rapid move to begin. )
G01 Z-0.00276 F7.87402 ( plunge. )
G04 P0 ( dwell for no time -- G64 should not smooth over this point )
X1.08900 Y-0.78091
X1.09200 Y-0.78091
X1.09200 Y-0.78191
X1.09300 Y-0.78191
X1.09300 Y-0.78391
X1.09400 Y-0.78391
X1.09400 Y-0.78591
X1.09500 Y-0.78591
X1.09500 Y-0.78891
X1.09400 Y-0.78891
X1.09400 Y-0.79091
X1.09300 Y-0.79091
X1.09300 Y-0.79291
X1.09200 Y-0.79291
X1.09200 Y-0.79391
X1.08900 Y-0.79391
X1.08900 Y-0.79491
X1.08600 Y-0.79491
X1.08600 Y-0.79391
X1.08300 Y-0.79391
X1.08300 Y-0.79291
X1.08200 Y-0.79291
X1.08200 Y-0.79091
X1.08100 Y-0.79091
X1.08100 Y-0.78891
X1.08000 Y-0.78891
X1.08000 Y-0.78591
X1.08100 Y-0.78591
X1.08100 Y-0.78391
X1.08200 Y-0.78391
X1.08200 Y-0.78191
X1.08300 Y-0.78191
X1.08300 Y-0.78091
X1.08600 Y-0.78091
X1.08600 Y-0.77991
X1.08900 Y-0.77991
X1.08900 Y-0.78091
G04 P0 ( dwell for no time -- G64 should not smooth over this point )
G00 Z0.07874 ( retract )

G00 X1.77400 Y-0.78091 ( rapid move to begin. )
G01 Z-0.00276 F7.87402 ( plunge. )
G04 P0 ( dwell for no time -- G64 should not smooth over this point )
X1.77400 Y-0.78091
X1.77700 Y-0.78091
X1.77700 Y-0.78191
X1.77800 Y-0.78191
X1.77800 Y-0.78391
X1.77900 Y-0.78391
X1.77900 Y-0.78591
X1.78000 Y-0.78591
X1.78000 Y-0.78891
X1.77900 Y-0.78891
X1.77900 Y-0.79091
X1.77800 Y-0.79091
X1.77800 Y-0.79291
X1.77700 Y-0.79291
X1.77700 Y-0.79391
X1.77400 Y-0.79391
X1.77400 Y-0.79491
X1.77100 Y-0.79491
X1.77100 Y-0.79391
X1.76800 Y-0.79391
X1.76800 Y-0.79291
X1.76700 Y-0.79291
X1.76700 Y-0.79091
X1.76600 Y-0.79091
X1.76600 Y-0.78891
X1.76500 Y-0.78891
X1.76500 Y-0.78591
X1.76600 Y-0.78591
X1.76600 Y-0.78391
X1.76700 Y-0.78391
X1.76700 Y-0.78191
X1.76800 Y-0.78191
X1.76800 Y-0.78091
X1.77100 Y-0.78091
X1.77100 Y-0.77991
X1.77400 Y-0.77991
X1.77400 Y-0.78091
G04 P0 ( dwell for no time -- G64 should not smooth over this point )
G00 Z0.07874 ( retract )

G00 X2.07400 Y-0.78091 ( rapid move to begin. )
G01 Z-0.00276 F7.87402 ( plunge. )
G04 P0 ( dwell for no time -- G64 should not smooth over this point )
X2.07400 Y-0.78091
X2.07700 Y-0.78091
X2.07700 Y-0.78191
X2.07800 Y-0.78191
X2.07800 Y-0.78391
X2.07900 Y-0.78391
X2.07900 Y-0.78591
X2.08000 Y-0.78591
X2.08000 Y-0.78891
X2.07900 Y-0.78891
X2.07900 Y-0.79091
X2.07800 Y-0.79091
X2.07800 Y-0.79291
X2.07700 Y-0.79291
X2.07700 Y-0.79391
X2.07400 Y-0.79391
X2.07400 Y-0.79491
X2.07100 Y-0.79491
X2.07100 Y-0.79391
X2.06800 Y-0.79391
X2.06800 Y-0.79291
X2.06700 Y-0.79291
X2.06700 Y-0.79091
X2.06600 Y-0.79091
X2.06600 Y-0.78891
X2.06500 Y-0.78891
X2.06500 Y-0.78591
X2.06600 Y-0.78591
X2.06600 Y-0.78391
X2.06700 Y-0.78391
X2.06700 Y-0.78191
X2.06800 Y-0.78191
X2.06800 Y-0.78091
X2.07100 Y-0.78091
X2.07100 Y-0.77991
X2.07400 Y-0.77991
X2.07400 Y-0.78091
G04 P0 ( dwell for no time -- G64 should not smooth over this point )
G00 Z0.07874 ( retract )

G00 X2.75800 Y-0.78091 ( rapid move to begin. )
G01 Z-0.00276 F7.87402 ( plunge. )
G04 P0 ( dwell for no time -- G64 should not smooth over this point )
X2.75800 Y-0.78091
X2.76100 Y-0.78091
X2.76100 Y-0.78191
X2.76200 Y-0.78191
X2.76200 Y-0.78391
X2.76300 Y-0.78391
X2.76300 Y-0.78591
X2.76400 Y-0.78591
X2.76400 Y-0.78891
X2.76300 Y-0.78891
X2.76300 Y-0.79091
X2.76200 Y-0.79091
X2.76200 Y-0.79291
X2.76100 Y-0.79291
X2.76100 Y-0.79391
X2.75800 Y-0.79391
X2.75800 Y-0.79491
X2.75500 Y-0.79491
X2.75500 Y-0.79391
X2.75200 Y-0.79391
X2.75200 Y-0.79291
X2.75100 Y-0.79291
X2.75100 Y-0.79091
X2.75000 Y-0.79091
X2.75000 Y-0.78891
X2.74900 Y-0.78891
X2.74900 Y-0.78591
X2.75000 Y-0.78591
X2.75000 Y-0.78391
X2.75100 Y-0.78391
X2.75100 Y-0.78191
X2.75200 Y-0.78191
X2.75200 Y-0.78091
X2.75500 Y-0.78091
X2.75500 Y-0.77991
X2.75800 Y-0.77991
X2.75800 Y-0.78091
G04 P0 ( dwell for no time -- G64 should not smooth over this point )
G00 Z0.07874 ( retract )

G00 X2.85600 Y-0.78091 ( rapid move to begin. )
G01 Z-0.00276 F7.87402 ( plunge. )
G04 P0 ( dwell for no time -- G64 should not smooth over this point )
X2.85600 Y-0.78091
X2.85900 Y-0.78091
X2.85900 Y-0.78191
X2.86000 Y-0.78191
X2.86000 Y-0.78391
X2.86100 Y-0.78391
X2.86100 Y-0.78591
X2.86200 Y-0.78591
X2.86200 Y-0.78891
X2.86100 Y-0.78891
X2.86100 Y-0.79091
X2.86000 Y-0.79091
X2.86000 Y-0.79291
X2.85900 Y-0.79291
X2.85900 Y-0.79391
X2.85600 Y-0.79391
X2.85600 Y-0.79491
X2.85300 Y-0.79491
X2.85300 Y-0.79391
X2.85000 Y-0.79391
X2.85000 Y-0.79291
X2.84900 Y-0.79291
X2.84900 Y-0.79091
X2.84800 Y-0.79091
X2.84800 Y-0.78891
X2.84700 Y-0.78891
X2.84700 Y-0.78591
X2.84800 Y-0.78591
X2.84800 Y-0.78391
X2.84900 Y-0.78391
X2.84900 Y-0.78191
X2.85000 Y-0.78191
X2.85000 Y-0.78091
X2.85300 Y-0.78091
X2.85300 Y-0.77991
X2.85600 Y-0.77991
X2.85600 Y-0.78091
G04 P0 ( dwell for no time -- G64 should not smooth over this point )
G00 Z0.07874 ( retract )

G00 X3.74200 Y-0.78091 ( rapid move to begin. )
G01 Z-0.00276 F7.87402 ( plunge. )
G04 P0 ( dwell for no time -- G64 should not smooth over this point )
X3.74200 Y-0.78091
X3.74500 Y-0.78091
X3.74500 Y-0.78191
X3.74600 Y-0.78191
X3.74600 Y-0.78391
X3.74700 Y-0.78391
X3.74700 Y-0.78591
X3.74800 Y-0.78591
X3.74800 Y-0.78891
X3.74700 Y-0.78891
X3.74700 Y-0.79091
X3.74600 Y-0.79091
X3.74600 Y-0.79291
X3.74500 Y-0.79291
X3.74500 Y-0.79391
X3.74200 Y-0.79391
X3.74200 Y-0.79491
X3.73900 Y-0.79491
X3.73900 Y-0.79391
X3.73600 Y-0.79391
X3.73600 Y-0.79291
X3.73500 Y-0.79291
X3.73500 Y-0.79091
X3.73400 Y-0.79091
X3.73400 Y-0.78891
X3.73300 Y-0.78891
X3.73300 Y-0.78591
X3.73400 Y-0.78591
X3.73400 Y-0.78391
X3.73500 Y-0.78391
X3.73500 Y-0.78191
X3.73600 Y-0.78191
X3.73600 Y-0.78091
X3.73900 Y-0.78091
X3.73900 Y-0.77991
X3.74200 Y-0.77991
X3.74200 Y-0.78091
G04 P0 ( dwell for no time -- G64 should not smooth over this point )
G00 Z0.07874 ( retract )

G00 X3.84200 Y-0.78091 ( rapid move to begin. )
G01 Z-0.00276 F7.87402 ( plunge. )
G04 P0 ( dwell for no time -- G64 should not smooth over this point )
X3.84200 Y-0.78091
X3.84500 Y-0.78091
X3.84500 Y-0.78191
X3.84600 Y-0.78191
X3.84600 Y-0.78391
X3.84700 Y-0.78391
X3.84700 Y-0.78591
X3.84800 Y-0.78591
X3.84800 Y-0.78891
X3.84700 Y-0.78891
X3.84700 Y-0.79091
X3.84600 Y-0.79091
X3.84600 Y-0.79291
X3.84500 Y-0.79291
X3.84500 Y-0.79391
X3.84200 Y-0.79391
X3.84200 Y-0.79491
X3.83900 Y-0.79491
X3.83900 Y-0.79391
X3.83600 Y-0.79391
X3.83600 Y-0.79291
X3.83500 Y-0.79291
X3.83500 Y-0.79091
X3.83400 Y-0.79091
X3.83400 Y-0.78891
X3.83300 Y-0.78891
X3.83300 Y-0.78591
X3.83400 Y-0.78591
X3.83400 Y-0.78391
X3.83500 Y-0.78391
X3.83500 Y-0.78191
X3.83600 Y-0.78191
X3.83600 Y-0.78091
X3.83900 Y-0.78091
X3.83900 Y-0.77991
X3.84200 Y-0.77991
X3.84200 Y-0.78091

G04 P0 ( dwell for no time -- G64 should not smooth over this point )
G00 Z0.39370 ( retract )

M9 ( Coolant off. )
M2 ( Program end. )

